public/assets/images/instagram.svg

<svg height="250" viewBox="0 0 250 250" width="250" xmlns="http://www.w3.org/2000/svg"><g fill="#fff" fill-rule="evenodd" transform="translate(-.030834)"><path d="m125 22.5550595c33.366071 0 37.317956.1269842 50.494544.7281746 12.183531.5560516 18.800099 2.5917659 23.203869 4.3025794 5.832341 2.2668651 9.995535 4.9751984 14.368055 9.3477182 4.37252 4.3725199 7.080853 8.5357143 9.347222 14.3680556 1.71131 4.4037698 3.747024 11.0203373 4.303076 23.203373.60119 13.1770834.728174 17.1289683.728174 50.4950397 0 33.366071-.126984 37.317956-.728174 50.494544-.556052 12.183531-2.591766 18.800099-4.303076 23.203869-2.266369 5.832341-4.974702 9.995535-9.347222 14.368055s-8.535714 7.080853-14.368055 9.347222c-4.40377 1.71131-11.020338 3.747024-23.203869 4.303076-13.174604.60119-17.126488.728174-50.494544.728174-33.3680556 0-37.3199405-.126984-50.4945437-.728174-12.1835317-.556052-18.8000992-2.591766-23.203373-4.303076-5.8328373-2.266369-9.9960317-4.974702-14.3685516-9.347222-4.3725198-4.37252-7.0808531-8.535714-9.3472222-14.368055-1.7113095-4.40377-3.7470238-11.020338-4.3030754-23.203373-.6011904-13.177084-.7281746-17.128969-.7281746-50.49504 0-33.3660714.1269842-37.3179563.7281746-50.4945437.5560516-12.1835317 2.5917659-18.8000992 4.3030754-23.203869 2.2663691-5.8323413 4.9747024-9.9955357 9.3472222-14.3680556 4.3725199-4.3725198 8.5357143-7.0808531 14.3685516-9.3477182 4.4032738-1.7108135 11.0198413-3.7465278 23.202877-4.3025794 13.1770834-.6011904 17.1289683-.7281746 50.4950397-.7281746m0-22.51587299c-33.9375 0-38.1924603.1438492-51.5208333.75198413-13.3010913.60714285-22.3844246 2.71924603-30.3333334 5.80853174-8.2172619 3.19345238-15.1860119 7.46626982-22.1329365 14.41319442s-11.21974204 13.9156746-14.41319442 22.1329365c-3.08928571 7.9489088-5.20138889 17.0322421-5.80853174 30.3333334-.60813493 13.327877-.7514881 17.5833333-.7514881 51.5208333s.14335317 38.192956.7514881 51.520833c.60714285 13.301092 2.71924603 22.384425 5.80853174 30.333334 3.19345238 8.216766 7.46626982 15.186012 14.41319442 22.132936 6.9469246 6.946925 13.9156746 11.219742 22.1329365 14.413195 7.9489088 3.089285 17.0322421 5.201389 30.3333334 5.808531 13.328373.608135 17.5833333.751488 51.5208333.751488s38.192956-.143353 51.520833-.751488c13.301092-.607142 22.384425-2.719246 30.333334-5.808531 8.217262-3.193453 15.186012-7.46627 22.132936-14.413195 6.946925-6.946924 11.219742-13.915674 14.413195-22.132936 3.089285-7.948909 5.201389-17.032242 5.808531-30.333334.608135-13.327877.751984-17.583333.751984-51.520833s-.143849-38.1929563-.751984-51.5208333c-.607142-13.3010913-2.719246-22.3844246-5.808531-30.3333334-3.193453-8.2172619-7.46627-15.1860119-14.413195-22.1329365-6.946924-6.9469246-13.915674-11.21974204-22.132936-14.41319442-7.948909-3.08928571-17.032242-5.20138889-30.333334-5.80853174-13.327877-.60813493-17.583333-.75198413-51.520833-.75198413"/><path d="m125 60.8308532c-35.4394841 0-64.1691468 28.7296627-64.1691468 64.1691468 0 35.439484 28.7296627 64.169147 64.1691468 64.169147 35.439484 0 64.169147-28.729663 64.169147-64.169147 0-35.4394841-28.729663-64.1691468-64.169147-64.1691468zm0 105.8229168c-23.004464 0-41.6537698-18.649306-41.6537698-41.65377s18.6493058-41.6537698 41.6537698-41.6537698 41.65377 18.6493058 41.65377 41.6537698-18.649306 41.65377-41.65377 41.65377z"/><path d="m206.699405 58.2956349c0 8.2817461-6.713294 14.9955357-14.99504 14.9955357s-14.995536-6.7137896-14.995536-14.9955357c0-8.281746 6.71379-14.9950397 14.995536-14.9950397s14.99504 6.7132937 14.99504 14.9950397"/></g></svg>

<?xml version="1.0" encoding="UTF-8" standalone="no"?>
<svg width="250px" height="250px" viewBox="0 0 250 250" version="1.1" xmlns="http://www.w3.org/2000/svg" xmlns:xlink="http://www.w3.org/1999/xlink">
    <!-- Generator: Sketch 39.1 (31720) - http://www.bohemiancoding.com/sketch -->
    <title>instagram</title>
    <desc>Created with Sketch.</desc>
    <defs></defs>
    <g id="Page-1" stroke="none" stroke-width="1" fill="none" fill-rule="evenodd">
        <g id="Artboard" transform="translate(-253.000000, -291.000000)" fill="#FFFFFF">
            <g id="instagram" transform="translate(252.969166, 291.000000)">
                <path d="M125,22.5550595 C158.366071,22.5550595 162.317956,22.6820437 175.494544,23.2832341 C187.678075,23.8392857 194.294643,25.875 198.698413,27.5858135 C204.530754,29.8526786 208.693948,32.5610119 213.066468,36.9335317 C217.438988,41.3060516 220.147321,45.469246 222.41369,51.3015873 C224.125,55.7053571 226.160714,62.3219246 226.716766,74.5049603 C227.317956,87.6820437 227.44494,91.6339286 227.44494,125 C227.44494,158.366071 227.317956,162.317956 226.716766,175.494544 C226.160714,187.678075 224.125,194.294643 222.41369,198.698413 C220.147321,204.530754 217.438988,208.693948 213.066468,213.066468 C208.693948,217.438988 204.530754,220.147321 198.698413,222.41369 C194.294643,224.125 187.678075,226.160714 175.494544,226.716766 C162.31994,227.317956 158.368056,227.44494 125,227.44494 C91.6319444,227.44494 87.6800595,227.317956 74.5054563,226.716766 C62.3219246,226.160714 55.7053571,224.125 51.3020833,222.41369 C45.469246,220.147321 41.3060516,217.438988 36.9335317,213.066468 C32.5610119,208.693948 29.8526786,204.530754 27.5863095,198.698413 C25.875,194.294643 23.8392857,187.678075 23.2832341,175.49504 C22.6820437,162.317956 22.5550595,158.366071 22.5550595,125 C22.5550595,91.6339286 22.6820437,87.6820437 23.2832341,74.5054563 C23.8392857,62.3219246 25.875,55.7053571 27.5863095,51.3015873 C29.8526786,45.469246 32.5610119,41.3060516 36.9335317,36.9335317 C41.3060516,32.5610119 45.469246,29.8526786 51.3020833,27.5858135 C55.7053571,25.875 62.3219246,23.8392857 74.5049603,23.2832341 C87.6820437,22.6820437 91.6339286,22.5550595 125,22.5550595 M125,0.0391865079 C91.0625,0.0391865079 86.8075397,0.183035714 73.4791667,0.791170635 C60.1780754,1.39831349 51.0947421,3.51041667 43.1458333,6.59970238 C34.9285714,9.79315476 27.9598214,14.0659722 21.0128968,21.0128968 C14.0659722,27.9598214 9.79315476,34.9285714 6.59970238,43.1458333 C3.51041667,51.0947421 1.39831349,60.1780754 0.791170635,73.4791667 C0.183035714,86.8070437 0.0396825397,91.0625 0.0396825397,125 C0.0396825397,158.9375 0.183035714,163.192956 0.791170635,176.520833 C1.39831349,189.821925 3.51041667,198.905258 6.59970238,206.854167 C9.79315476,215.070933 14.0659722,222.040179 21.0128968,228.987103 C27.9598214,235.934028 34.9285714,240.206845 43.1458333,243.400298 C51.0947421,246.489583 60.1780754,248.601687 73.4791667,249.208829 C86.8075397,249.816964 91.0625,249.960317 125,249.960317 C158.9375,249.960317 163.192956,249.816964 176.520833,249.208829 C189.821925,248.601687 198.905258,246.489583 206.854167,243.400298 C215.071429,240.206845 222.040179,235.934028 228.987103,228.987103 C235.934028,222.040179 240.206845,215.071429 243.400298,206.854167 C246.489583,198.905258 248.601687,189.821925 249.208829,176.520833 C249.816964,163.192956 249.960813,158.9375 249.960813,125 C249.960813,91.0625 249.816964,86.8070437 249.208829,73.4791667 C248.601687,60.1780754 246.489583,51.0947421 243.400298,43.1458333 C240.206845,34.9285714 235.934028,27.9598214 228.987103,21.0128968 C222.040179,14.0659722 215.071429,9.79315476 206.854167,6.59970238 C198.905258,3.51041667 189.821925,1.39831349 176.520833,0.791170635 C163.192956,0.183035714 158.9375,0.0391865079 125,0.0391865079" id="Fill-1"></path>
                <path d="M125,60.8308532 C89.5605159,60.8308532 60.8308532,89.5605159 60.8308532,125 C60.8308532,160.439484 89.5605159,189.169147 125,189.169147 C160.439484,189.169147 189.169147,160.439484 189.169147,125 C189.169147,89.5605159 160.439484,60.8308532 125,60.8308532 L125,60.8308532 Z M125,166.65377 C101.995536,166.65377 83.3462302,148.004464 83.3462302,125 C83.3462302,101.995536 101.995536,83.3462302 125,83.3462302 C148.004464,83.3462302 166.65377,101.995536 166.65377,125 C166.65377,148.004464 148.004464,166.65377 125,166.65377 L125,166.65377 Z" id="Fill-2"></path>
                <path d="M206.699405,58.2956349 C206.699405,66.577381 199.986111,73.2911706 191.704365,73.2911706 C183.422619,73.2911706 176.708829,66.577381 176.708829,58.2956349 C176.708829,50.0138889 183.422619,43.3005952 191.704365,43.3005952 C199.986111,43.3005952 206.699405,50.0138889 206.699405,58.2956349" id="Fill-3"></path>
            </g>
        </g>
    </g>
</svg>
